X: 28781
T: My Love Is In America
R: reel
M: 4/4
K: Ddorian
|:[D3d3]E FEFG|AcGc Addc|A,DDE FAdB|cAGE EDCD|
A,DDE FEFG|AcGc Adde|efec dcAB|cAGE EDDE:|
|:[D3d3]B c2Bc|AddB cAGc|AddB cccA|GEcE EDDc|
AddB c2Bc|AddB cAGA|efec dcAB|cAGE EDDc:|

